X: 1
T:Arrochar Bridge
R:reel
C:traditional
O:Cape Breton
N:Tune books, related recordings
N:..... Cranford Publications <http://www.cranfordpub.com>
D:Jerry Holland, Crystal Clear
B: The Dungreen Collection
Z:This abc transcription is for personal use only,
Z:provided this notice remains attached.
Z:Paul Stewart Cranford 
Q:333
L:1/8
M:C|
K:A
B,|A,2 ef edcA|FGAB AGFD|E2 ef ed c2|BcdB cAA:|!
g|:abae c/c/c e=g|fdfa f2 f2|efae cbec|1BABc A/A/A eg:|2BABc A/A/A A|]!
